static/roadshow/compound.svg

<?xml version="1.0" encoding="utf-8"?>
<!-- Generator: Adobe Illustrator 25.2.1, SVG Export Plug-In . SVG Version: 6.00 Build 0)  -->
<svg version="1.1" id="Layer_1" xmlns="http://www.w3.org/2000/svg" xmlns:xlink="http://www.w3.org/1999/xlink" x="0px" y="0px"
	 viewBox="0 0 2000 2000" style="enable-background:new 0 0 2000 2000;" xml:space="preserve">
<style type="text/css">
	.st0{fill-rule:evenodd;clip-rule:evenodd;}
</style>
<path class="st0" d="M577.7,1335.3c-29.9-18.3-48.2-50.8-48.2-85.8v-195.4c0-23.2,18.9-42,42.1-41.9c7.4,0,14.7,2,21.1,5.7
	l440.9,257.1c25.8,15,41.7,42.6,41.7,72.5v202.4c0.1,27.8-22.4,50.4-50.2,50.4c-9.3,0-18.5-2.6-26.4-7.4L577.7,1335.3z
	 M1234.9,964.4c25.8,15,41.6,42.7,41.7,72.5v410.8c0,12.1-6.5,23.3-17.1,29.2l-96.5,54.3c-1.2,0.7-2.5,1.2-3.9,1.6v-228.1
	c0-29.5-15.5-56.9-40.9-72.1L731,1001V743.5c0-23.2,18.9-42,42.1-41.9c7.4,0,14.7,2,21.1,5.7L1234.9,964.4z M1427.9,661
	c25.9,15,41.8,42.7,41.8,72.6v600c-0.1,12.3-6.9,23.6-17.7,29.5l-91.5,49.4V994.8c0-29.5-15.5-56.8-40.7-72L924,685.4V441.2
	c0-7.4,2-14.7,5.6-21.1c11.7-20,37.4-26.8,57.4-15.2L1427.9,661z"/>
</svg>

<svg width="2000" height="2000" viewBox="0 0 2000 2000" fill="none" xmlns="http://www.w3.org/2000/svg">
<path fill-rule="evenodd" clip-rule="evenodd" d="M577.7 1335.3C547.8 1317 529.5 1284.5 529.5 1249.5V1054.1C529.5 1030.9 548.4 1012.1 571.6 1012.2C579 1012.2 586.3 1014.2 592.7 1017.9L1033.6 1275C1059.4 1290 1075.3 1317.6 1075.3 1347.5V1549.9C1075.4 1577.7 1052.9 1600.3 1025.1 1600.3C1015.8 1600.3 1006.6 1597.7 998.7 1592.9L577.7 1335.3ZM1234.9 964.4C1260.7 979.4 1276.5 1007.1 1276.6 1036.9V1447.7C1276.6 1459.8 1270.1 1471 1259.5 1476.9L1163 1531.2C1161.8 1531.9 1160.5 1532.4 1159.1 1532.8V1304.7C1159.1 1275.2 1143.6 1247.8 1118.2 1232.6L731 1001V743.5C731 720.3 749.9 701.5 773.1 701.6C780.5 701.6 787.8 703.6 794.2 707.3L1234.9 964.4ZM1427.9 661C1453.8 676 1469.7 703.7 1469.7 733.6V1333.6C1469.6 1345.9 1462.8 1357.2 1452 1363.1L1360.5 1412.5V994.8C1360.5 965.3 1345 938 1319.8 922.8L924 685.4V441.2C924 433.8 926 426.5 929.6 420.1C941.3 400.1 967 393.3 987 404.9L1427.9 661Z" fill="white"/>
</svg>
